!!! OTL: Berkowitz223
!!! Chapter: 1
!!! Section: II
!!! Page: 51
!!! Mode: 
!!! Encoder: DJB
**kern
*staff1
*I"Piano
=1-
*clefC3
*k[f#c#g#d#]
*E:
*M3/8
8E/L
8G#/
[8B/J
=2
8B\L]
8c#\
[8d#\J
=3
8d#\L]
8e\
8f#\J
=4
8g#\L
8e\
8B\J
=5
8r
8f#\L
[8d#\J
=6
8d#\L]
8e\
[8c#\J
=7
8c#\L]
8d#\
8f#\J
=8
4.B/
=9
8a\L
8f#\
[8B\J
=10
8B\L]
8f#\
8a\J
=11
8g#\L
8e\
[8B\J
=12
!!linebreak:original
8B\L]
8e\
8g#\J
=13
4f#\
8B/
=14
4f#\
[8B/
=15
8B\L]
8c#\
8d#\J
=16
4.e\
==
*-
